findly-builder/apps/searchassist/src/assets/icons/check-selected.svg

<svg width="14" height="10" viewBox="0 0 14 10" fill="none" xmlns="http://www.w3.org/2000/svg">
<path fill-rule="evenodd" clip-rule="evenodd" d="M12.7794 0.317679C12.966 0.116817 13.2785 0.1067 13.4774 0.295081C13.6647 0.472381 13.6846 0.762322 13.5307 0.963279L13.4998 0.999866L5.1372 9.50897C4.95853 9.70132 4.66517 9.71826 4.46648 9.55562L4.43039 9.52302L0.447016 5.55964C0.252754 5.36636 0.250459 5.05066 0.44189 4.85451C0.62206 4.66991 0.909622 4.65699 1.10479 4.81726L1.14025 4.84934L4.76308 8.45395L12.7794 0.317679Z" fill="#0D6EFD"/>
</svg>

<svg width="14" height="10" fill="none" xmlns="http://www.w3.org/2000/svg"><path fill-rule="evenodd" clip-rule="evenodd" d="M12.78.318a.49.49 0 0 1 .697-.023.502.502 0 0 1 .054.668L13.5 1 5.137 9.509a.49.49 0 0 1-.67.047l-.037-.033L.447 5.56a.502.502 0 0 1-.005-.705.49.49 0 0 1 .663-.038l.035.032 3.623 3.605L12.78.318Z" fill="#0D6EFD"/></svg>
